lib/preview_tmp/nrk-logo-preview-nrk-3.svg

<svg width="54" height="16" viewBox="0 0 54 16" fill="none" xmlns="http://www.w3.org/2000/svg">
<path d="M0 15V1.00129H4.59339V15H0ZM10.8428 3.22926L13.4844 15H8.45737L5.30307 1.00129H8.12254C8.76907 0.992901 9.39641 1.22081 9.88691 1.64214C10.3782 2.0458 10.7158 2.60617 10.8428 3.22926ZM14.1744 15V1.00129H18.7678V15H14.1744ZM22.2372 6.3248C21.7422 6.32963 21.2552 6.20012 20.828 5.95015C20.4064 5.70649 20.0563 5.35631 19.8127 4.93472C19.5624 4.50741 19.4329 4.02024 19.4378 3.52506C19.4321 3.03289 19.5618 2.54863 19.8127 2.12519C20.0589 1.70818 20.4086 1.3618 20.828 1.11963C21.2553 0.86994 21.7423 0.740454 22.2372 0.744968C22.7292 0.739669 23.2133 0.869271 23.6369 1.11963C24.0521 1.36392 24.3981 1.71001 24.6424 2.12519C24.893 2.54875 25.0226 3.03293 25.0172 3.52506C25.0218 4.0202 24.8923 4.50729 24.6424 4.93472C24.4007 5.35446 24.0542 5.70435 23.6369 5.95015C23.2133 6.20099 22.7289 6.33063 22.2366 6.3248H22.2372ZM25.7269 15V1.00129H30.3207V15H25.7269ZM36.136 8.65129C36.1489 8.66487 36.2475 8.82588 36.4317 9.13434C36.6159 9.44279 36.8558 9.83715 37.1513 10.3174C37.447 10.7973 37.759 11.3067 38.0874 11.8454C38.4157 12.384 38.7247 12.8934 39.0143 13.3734C39.3028 13.8534 39.6313 14.3956 40 15H34.9531C34.6375 14.4874 34.3515 14.0241 34.0952 13.61C33.8389 13.196 33.5665 12.749 33.2778 12.2693C32.9884 11.7899 32.7024 11.3233 32.4196 10.8694C32.1368 10.4155 31.8938 10.0179 31.6905 9.67659C31.4863 9.33505 31.3449 9.105 31.2663 8.98648C31.0713 8.69237 30.9559 8.3527 30.9315 8.00066C30.951 7.66278 31.0597 7.33616 31.2466 7.05398C31.3254 6.92254 31.47 6.68919 31.6803 6.35401C31.8906 6.01883 32.137 5.62125 32.4196 5.1612C32.7021 4.70115 32.9882 4.23122 33.2778 3.75146C33.5674 3.27169 33.8398 2.82146 34.0952 2.40084C34.3519 1.98066 34.6379 1.51404 34.9531 1.00097H40L36.0962 7.36943C35.9754 7.55851 35.9073 7.77642 35.8991 8.00066C35.9121 8.23606 35.9942 8.46239 36.1353 8.65129H36.136Z" fill="white"/>
<path d="M53.6319 9.75465C53.4953 9.36109 53.2808 8.99905 53.0014 8.69011C52.7108 8.37761 52.3581 8.12919 51.966 7.96072C51.517 7.76762 51.0421 7.64142 50.5565 7.58615V7.52701C51.1461 7.33955 51.6948 7.04185 52.1734 6.64974C52.6001 6.29964 52.952 5.8672 53.208 5.37821C53.4505 4.90912 53.5757 4.38829 53.5731 3.86026C53.5821 3.41208 53.4805 2.96858 53.2773 2.56901C53.0696 2.1824 52.7723 1.85117 52.4103 1.60304C51.9891 1.31645 51.5174 1.11241 51.0201 1.00177C50.409 0.863177 49.7838 0.797017 49.1572 0.804637C48.745 0.80592 48.3333 0.835567 47.9251 0.893355C47.5028 0.951688 47.0848 1.03728 46.6736 1.14962C46.2778 1.25677 45.8944 1.40546 45.5299 1.59319L45.8058 3.15057C46.095 3.03229 46.3743 2.93044 46.644 2.84501C46.9136 2.75959 47.1731 2.69059 47.4224 2.63802C47.6721 2.58588 47.9153 2.54644 48.1521 2.51972C48.3812 2.49385 48.6115 2.48069 48.842 2.48029C49.2593 2.4734 49.6759 2.51309 50.0843 2.59859C50.3802 2.65808 50.6615 2.77531 50.912 2.94358C51.1164 3.08753 51.2769 3.28546 51.3753 3.51527C51.4796 3.77512 51.53 4.05346 51.5235 4.33338C51.5291 4.7179 51.4375 5.09761 51.2573 5.43735C51.0741 5.77233 50.8181 6.062 50.5082 6.28504C50.1589 6.53484 49.7686 6.72164 49.3549 6.83702C48.8741 6.97325 48.3762 7.03965 47.8764 7.03417H47.5016L47.2653 8.57184H47.8961C48.4779 8.56397 49.059 8.6135 49.631 8.71969C50.0591 8.79623 50.4698 8.94984 50.843 9.17309C51.1485 9.35909 51.3973 9.62492 51.5629 9.94193C51.7274 10.2827 51.8084 10.6578 51.7991 11.036C51.8095 11.4187 51.7355 11.799 51.5823 12.1499C51.4359 12.4612 51.2076 12.727 50.9219 12.9187C50.5804 13.1414 50.1989 13.2954 49.7985 13.3721C49.2697 13.4779 48.7311 13.5275 48.1918 13.52C47.9947 13.52 47.8007 13.5134 47.6099 13.5003C47.4192 13.4871 47.2188 13.4674 47.0087 13.4411C46.7987 13.4148 46.5786 13.3787 46.3486 13.3327C46.1186 13.2867 45.8656 13.2308 45.5896 13.1651L45.3334 14.8408C45.622 14.8933 45.9013 14.9426 46.1712 14.9886C46.4411 15.0346 46.7071 15.0741 46.9693 15.1069C47.2321 15.1393 47.4885 15.1623 47.7384 15.1759C47.9884 15.1895 48.2315 15.1961 48.4678 15.1956C49.0961 15.2005 49.7232 15.1444 50.3406 15.0281C50.8652 14.9301 51.3731 14.7575 51.8488 14.5155C52.264 14.3048 52.6378 14.021 52.9524 13.6777C53.2489 13.3481 53.4767 12.9628 53.6226 12.5441C53.7792 12.0841 53.8561 11.6008 53.8497 11.1149C53.8554 10.6524 53.7817 10.1923 53.6319 9.75465Z" fill="white"/>
</svg>

<svg xmlns="http://www.w3.org/2000/svg" viewBox="0 0 54 16"><path fill="#fff" d="M0 15V1.001h4.593V15H0ZM10.843 3.23 13.484 15H8.457L5.303 1.001h2.82a2.655 2.655 0 0 1 1.764.641c.491.404.829.964.956 1.587ZM14.174 15V1.001h4.594V15h-4.594Zm8.063-8.675a2.737 2.737 0 0 1-1.409-.375 2.778 2.778 0 0 1-1.015-1.015 2.735 2.735 0 0 1-.375-1.41 2.685 2.685 0 0 1 .375-1.4 2.812 2.812 0 0 1 3.824-1.005c.415.244.761.59 1.005 1.005.251.424.38.908.375 1.4.005.495-.125.982-.375 1.41a2.8 2.8 0 0 1-1.005 1.015c-.424.251-.908.38-1.4.375ZM25.727 15V1.001h4.594V15h-4.594Zm10.409-6.349c.013.014.111.175.296.483.184.309.424.703.72 1.183a377.481 377.481 0 0 1 1.862 3.056c.289.48.617 1.023.986 1.627h-5.047l-.858-1.39c-.256-.414-.529-.861-.817-1.34-.29-.48-.576-.947-.858-1.4a71.104 71.104 0 0 1-.73-1.193 21.1 21.1 0 0 0-.424-.69A2.04 2.04 0 0 1 30.932 8c.019-.338.128-.665.315-.947.078-.131.223-.365.433-.7a216.97 216.97 0 0 0 1.598-2.603l.817-1.35.858-1.4H40l-3.904 6.368c-.12.19-.189.407-.197.632.013.235.095.461.236.65h.001ZM53.632 9.755a3.105 3.105 0 0 0-.63-1.065 3.068 3.068 0 0 0-1.036-.73 4.998 4.998 0 0 0-1.41-.374v-.059a4.889 4.889 0 0 0 1.617-.877c.427-.35.779-.783 1.035-1.272.242-.469.368-.99.365-1.518a2.728 2.728 0 0 0-.296-1.291 2.748 2.748 0 0 0-.867-.966 4.025 4.025 0 0 0-1.39-.601 7.983 7.983 0 0 0-1.863-.197 8.99 8.99 0 0 0-1.232.088c-.422.059-.84.144-1.251.257-.396.107-.78.255-1.144.443l.276 1.558c.289-.119.568-.22.838-.306a7.912 7.912 0 0 1 1.508-.325c.23-.026.46-.04.69-.04a5.61 5.61 0 0 1 1.242.119c.296.06.577.176.828.345.204.144.365.341.463.571.105.26.155.538.148.818.006.385-.086.765-.266 1.104-.183.335-.439.625-.749.848-.35.25-.74.437-1.153.552-.48.136-.979.203-1.479.197h-.374l-.237 1.538h.631a8.849 8.849 0 0 1 1.735.148c.428.076.839.23 1.212.453.305.186.554.452.72.769.164.34.245.716.236 1.094.01.383-.063.763-.217 1.114a1.9 1.9 0 0 1-.66.769 3.137 3.137 0 0 1-1.123.453 7.648 7.648 0 0 1-1.607.148c-.197 0-.391-.007-.582-.02-.19-.013-.391-.033-.601-.059a9.205 9.205 0 0 1-.66-.108c-.23-.046-.483-.102-.76-.168l-.256 1.676c.289.052.568.102.838.148s.536.085.798.118c.263.032.52.055.77.069.25.014.492.02.729.02a9.707 9.707 0 0 0 1.873-.168 5.59 5.59 0 0 0 1.508-.513c.415-.21.789-.494 1.103-.837.297-.33.525-.715.67-1.134a4.26 4.26 0 0 0 .228-1.43 4.047 4.047 0 0 0-.218-1.36Z"/></svg>
